src/assets/Payment.svg

<svg width="28" height="28" viewBox="0 0 28 28" fill="none" xmlns="http://www.w3.org/2000/svg">
<path d="M3.93622 28C2.88676 28 1.89941 27.6294 1.15423 26.9554C0.409054 26.2815 -0.000793457 25.3885 -0.000793457 24.4393V3.56077C-0.000793457 2.61162 0.409054 1.71863 1.15423 1.04468C1.89941 0.370721 2.88676 4.57764e-05 3.93622 4.57764e-05H24.0622C25.1116 4.57764e-05 26.099 0.370721 26.8442 1.04468C27.5894 1.71863 27.9992 2.61162 27.9992 3.56077V24.4393C27.9992 25.3885 27.5894 26.2815 26.8442 26.9554C26.099 27.6294 25.1116 28 24.0622 28H3.93622ZM1.95219 24.4365C1.95219 24.9139 2.16022 25.3604 2.53591 25.7002C2.9116 26.04 3.40839 26.2281 3.93312 26.2281H24.0591C24.5869 26.2281 25.0806 26.04 25.4563 25.7002C25.832 25.3604 26.04 24.9111 26.04 24.4365V7.24786H1.95219V24.4365ZM26.0462 5.47873V3.55796C26.0462 3.08058 25.8382 2.63128 25.4625 2.2943C25.0868 1.95451 24.59 1.76637 24.0622 1.76637H21.749V5.47873H26.0462ZM19.793 5.47873V1.76637H3.93622C3.40839 1.76637 2.9116 1.95451 2.53902 2.2943C2.16332 2.63408 1.95529 3.08339 1.95529 3.56077V5.48154H19.7961L19.793 5.47873ZM16.9395 23.5913C16.3993 23.5913 15.9615 23.1953 15.9615 22.7067C15.9615 22.2181 16.3993 21.8221 16.9395 21.8221H19.3707V21.4767C19.3707 21.4767 19.3707 21.4627 19.3707 21.4543C19.3707 20.9656 19.8085 20.5697 20.3487 20.5697C20.889 20.5697 21.3268 20.9656 21.3268 21.4543V22.7067C21.3268 23.1953 20.889 23.5913 20.3487 23.5913H16.9395ZM7.64968 23.5913C7.10943 23.5913 6.67164 23.1953 6.67164 22.7067V21.4543C6.67164 20.9656 7.10943 20.5697 7.64968 20.5697C8.18994 20.5697 8.62773 20.9656 8.62773 21.4543V21.8249H11.034C11.034 21.8249 11.0496 21.8249 11.0589 21.8249C11.5991 21.8249 12.0369 22.2209 12.0369 22.7095C12.0369 23.1981 11.5991 23.5941 11.0589 23.5941H7.64968V23.5913ZM6.44809 19.3341C5.90783 19.3341 5.47004 18.9382 5.47004 18.4495C5.47004 17.9609 5.90783 17.565 6.44809 17.565H21.5503C22.0906 17.565 22.5284 17.9609 22.5284 18.4495C22.5284 18.9382 22.0906 19.3341 21.5503 19.3341H6.44809ZM6.44809 16.3659C5.90783 16.3659 5.47004 15.97 5.47004 15.4813C5.47004 14.9927 5.90783 14.5968 6.44809 14.5968H21.5503C22.0906 14.5968 22.5284 14.9927 22.5284 15.4813C22.5284 15.97 22.0906 16.3659 21.5503 16.3659H6.44809ZM7.64968 13.3612C7.10943 13.3612 6.67164 12.9652 6.67164 12.4766V11.2242C6.67164 10.7356 7.10943 10.3396 7.64968 10.3396H11.0589C11.5991 10.3396 12.0369 10.7356 12.0369 11.2242C12.0369 11.7128 11.5991 12.1088 11.0589 12.1088H8.62773V12.4542C8.62773 12.4542 8.62773 12.4682 8.62773 12.4766C8.62773 12.9652 8.18994 13.3612 7.64968 13.3612ZM20.3456 13.3612C19.8054 13.3612 19.3676 12.9652 19.3676 12.4766V12.1088H16.9333C16.3962 12.1088 15.9584 11.71 15.9584 11.2242C15.9584 10.7384 16.3962 10.3396 16.9364 10.3396H20.3456C20.8859 10.3396 21.3237 10.7356 21.3237 11.2242V12.4766C21.3237 12.9652 20.8859 13.3612 20.3456 13.3612Z" fill="#999999"/>
</svg>

<svg xmlns="http://www.w3.org/2000/svg" width="28" height="28" fill="none"><path fill="#999" d="M3.936 28c-1.05 0-2.037-.37-2.782-1.045C.41 26.282 0 25.39 0 24.44V3.561c0-.95.41-1.842 1.155-2.516S2.887 0 3.936 0h20.126c1.05 0 2.037.37 2.782 1.045S28 2.612 28 3.56v20.878c0 .95-.41 1.843-1.155 2.516C26.1 27.63 25.112 28 24.062 28zm-1.984-3.564c0 .478.208.924.584 1.264s.872.528 1.397.528H24.06a2.07 2.07 0 0 0 1.397-.528c.376-.34.584-.789.584-1.264V7.249H1.952zM26.046 5.48V3.558a1.7 1.7 0 0 0-.584-1.264 2.08 2.08 0 0 0-1.4-.528H21.75V5.48zm-6.253 0V1.766H3.936c-.528 0-1.024.189-1.397.528a1.7 1.7 0 0 0-.584 1.267v1.92h17.841zM16.939 23.59c-.54 0-.978-.396-.978-.884 0-.489.438-.885.978-.885h2.432v-.368c0-.488.438-.884.978-.884s.978.396.978.884v1.253c0 .488-.438.884-.978.884zm-9.29 0c-.54 0-.977-.396-.977-.884v-1.253c0-.488.437-.884.978-.884s.978.396.978.884v.37h2.431c.54 0 .978.397.978.885 0 .49-.438.885-.978.885h-3.41zm-1.2-4.257c-.541 0-.979-.396-.979-.884 0-.49.438-.885.978-.885H21.55c.54 0 .978.396.978.884 0 .49-.437.885-.978.885zm0-2.968c-.541 0-.979-.396-.979-.885 0-.488.438-.884.978-.884H21.55c.54 0 .978.396.978.884 0 .489-.437.885-.978.885zm1.2-3.005c-.54 0-.977-.396-.977-.884v-1.253c0-.488.437-.884.978-.884h3.409c.54 0 .978.396.978.884 0 .489-.438.885-.978.885H8.628v.368c0 .488-.438.884-.978.884m12.697 0c-.54 0-.978-.396-.978-.884v-.368h-2.435c-.537 0-.975-.399-.975-.885s.438-.884.978-.884h3.41c.54 0 .978.396.978.884v1.253c0 .488-.438.884-.978.884"/></svg>
